X: 581
T: Qia suantai
%%abc-version 2.0
%%abcx-abcm2ps-target-version 5.9.1 (29 Sep 2008)
%%abc-creator hum2abc beta
%%abcx-conversion-date 2013/10/02 07:52:30
%%abc-edited-by Helmut Schaffrath
%%humdrum-veritas 451790912
%%humdrum-veritas-data 2251993381
%%continueall 1
%%barnumbers 0
L: 1/8
M: 2/4
K: A
A cB2 [I:setbarnb 1]| 
A cB2 | 
A Bc2 | 
A CE2 | 
e e f f | 
B B/ c/A2 | 
F E/ F/ F C/ B,/ | 
A,4 |]  



